src/images/bitcore-logo-vertical-grey.svg

<?xml version="1.0" encoding="UTF-8" standalone="no"?>
<svg width="100px" height="140px" viewBox="0 0 100 140" version="1.1" xmlns="http://www.w3.org/2000/svg" xmlns:xlink="http://www.w3.org/1999/xlink" xmlns:sketch="http://www.bohemiancoding.com/sketch/ns">
    <!-- Generator: Sketch 3.3.3 (12072) - http://www.bohemiancoding.com/sketch -->
    <title>bitcore-logo-vertical-grey</title>
    <desc>Created with Sketch.</desc>
    <defs></defs>
    <g id="assets" stroke="none" stroke-width="1" fill="none" fill-rule="evenodd" sketch:type="MSPage">
        <g id="bitcore-logo-vertical-grey" sketch:type="MSArtboardGroup" fill="#F9F9F9">
            <g id="Imported-Layers" sketch:type="MSLayerGroup" transform="translate(4.000000, 3.000000)">
                <path d="M28.6978696,58.2343182 C29.4355652,52.7361364 32.365913,42.3370455 43.6152609,33.3411364 L43.6152609,0.908409091 C5.93965217,28.8513636 1.36021739,63.5647727 0.908608696,74.6634091 L28.6978696,58.2343182" id="Fill-1" sketch:type="MSShapeGroup"></path>
                <path d="M49.7456957,33.1856818 C54.3006087,36.5852273 62.4213913,44.4009091 64.4914348,58.1095455 L92.201,74.4486364 C88.1814783,29.5468182 59.5278261,7.18181818 49.7456957,0.802045455 L49.7456957,33.1856818" id="Fill-2" sketch:type="MSShapeGroup"></path>
                <path d="M61.7245652,63.5995455 C56.5974783,65.6327273 45.6464783,68.4759091 31.8877391,63.4788636 L4.34573913,79.7606818 C46.7172609,97.6011364 79.5253043,84.7802273 89.4096087,79.9222727 L61.7245652,63.5995455" id="Fill-3" sketch:type="MSShapeGroup"></path>
            </g>
            <path d="M11.6750992,120.695728 C12.6535435,120.695728 13.4997505,120.868525 14.2137204,121.215231 C14.9271346,121.561937 15.5188684,122.030879 15.9878104,122.622613 C16.4567525,123.213791 16.8034584,123.907203 17.0273727,124.702293 C17.2518426,125.497384 17.3640776,126.354147 17.3640776,127.271474 C17.3640776,128.678855 17.1040481,130.009006 16.5839891,131.263037 C16.0639302,132.517068 15.3555165,133.608303 14.4581925,134.535631 C13.5614242,135.463514 12.5007484,136.198041 11.2772763,136.738103 C10.0538043,137.278719 8.72809842,137.54875 7.30071437,137.54875 C7.11736024,137.54875 6.79621272,137.543749 6.33782742,137.533193 C5.8788865,137.523192 5.35382696,137.477075 4.76209321,137.395955 C4.17091507,137.314279 3.54417734,137.192043 2.88132441,137.028691 C2.21847148,136.865895 1.59173376,136.641425 1,136.355837 L6.29171108,114.119427 L11.0328042,113.385455 L9.13592244,121.276905 C9.54430208,121.092995 9.95157047,120.950201 10.3599501,120.848523 C10.7677741,120.746289 11.2056015,120.695728 11.6750992,120.695728 L11.6750992,120.695728 Z M7.69853725,133.786657 C8.41250709,133.786657 9.08536115,133.613304 9.71765506,133.266598 C10.3493934,132.919892 10.8950108,132.45595 11.3539517,131.874773 C11.812337,131.293596 12.1746003,130.6363 12.4396303,129.901772 C12.7046604,129.1678 12.8368976,128.403269 12.8368976,127.608179 C12.8368976,126.629179 12.6741014,125.864647 12.3479533,125.31403 C12.0218052,124.763412 11.4200703,124.48838 10.5433042,124.48838 C10.2577163,124.48838 9.88545187,124.538942 9.42706656,124.641175 C8.96812564,124.742854 8.55530105,124.957322 8.18803719,125.28347 L6.169475,133.664421 C6.29171108,133.684423 6.39894546,133.704981 6.49062252,133.725539 C6.58229958,133.745541 6.67897721,133.761098 6.78121102,133.771099 C6.88288922,133.781656 7.0051253,133.786657 7.14791927,133.786657 L7.69853725,133.786657 L7.69853725,133.786657 Z M23.1141739,137.120368 L18.5875496,137.120368 L22.4107609,121.031877 L26.9679442,121.031877 L23.1141739,137.120368 L23.1141739,137.120368 Z M25.3166459,119.074433 C24.684352,119.074433 24.1137317,118.885523 23.6036739,118.508258 C23.0941717,118.131549 22.8391428,117.555372 22.8391428,116.780284 C22.8391428,116.352458 22.9258193,115.949634 23.0991722,115.572369 C23.2725252,115.195104 23.5019957,114.868956 23.787028,114.59337 C24.0726159,114.318338 24.4037646,114.098869 24.7815852,113.935517 C25.1582946,113.772721 25.561118,113.691045 25.9894999,113.691045 C26.6217939,113.691045 27.1924141,113.879955 27.7024719,114.25722 C28.2119741,114.63393 28.4670031,115.210106 28.4670031,115.985194 C28.4670031,116.413576 28.3803266,116.815844 28.2069736,117.193109 C28.0336206,117.570374 27.8041501,117.897077 27.5185622,118.172109 C27.2335299,118.44714 26.9018256,118.666609 26.5245606,118.829405 C26.1472956,118.992757 25.7450278,119.074433 25.3166459,119.074433 L25.3166459,119.074433 Z M31.6173602,117.025312 L36.3584533,116.290784 L35.1960993,121.031877 L40.2733416,121.031877 L39.3560154,124.763412 L34.3093321,124.763412 L32.9630684,130.391272 C32.8408323,130.860214 32.7641569,131.298597 32.7335979,131.706421 C32.7030389,132.114245 32.7541558,132.465951 32.8869486,132.762096 C33.0191858,133.057685 33.2486563,133.287156 33.5748044,133.449952 C33.9009525,133.613304 34.3498923,133.69498 34.9210681,133.69498 C35.4100125,133.69498 35.8845107,133.648863 36.342896,133.557186 C36.8018369,133.465509 37.2657784,133.337717 37.7347205,133.174921 L38.0714253,136.661427 C37.4596893,136.885897 36.7968364,137.079808 36.0834222,137.242604 C35.3694523,137.405956 34.5232453,137.487632 33.5442454,137.487632 C32.1374192,137.487632 31.04674,137.278719 30.2716521,136.860339 C29.4971199,136.442513 28.9459463,135.871338 28.6197982,135.147367 C28.2936501,134.423951 28.1508561,133.592746 28.1919719,132.654862 C28.232532,131.716978 28.375326,130.727977 28.6197982,129.687859 L31.6173602,117.025312 L31.6173602,117.025312 Z M40.4261368,130.697418 C40.4261368,129.310594 40.6506066,128.005446 41.0989908,126.781974 C41.5479306,125.558502 42.1902256,124.48838 43.0264316,123.570498 C43.8620819,122.653172 44.8766413,121.929201 46.0695544,121.399141 C47.2624674,120.868525 48.5931738,120.603495 50.061118,120.603495 C50.9789999,120.603495 51.7996485,120.690172 52.5230638,120.863525 C53.2475904,121.036878 53.9048872,121.266348 54.4960653,121.551936 L52.936444,125.100116 C52.52862,124.936765 52.1052387,124.78897 51.6668557,124.656177 C51.2284726,124.52394 50.693412,124.457821 50.061118,124.457821 C48.5320558,124.457821 47.328586,124.972324 46.4518199,126.002441 C45.5750539,127.032002 45.1366708,128.433828 45.1366708,130.207918 C45.1366708,131.248036 45.3611407,132.089242 45.8095249,132.731537 C46.2584647,133.373832 47.0841138,133.69498 48.287028,133.69498 C48.8787618,133.69498 49.449382,133.633862 50,133.51107 C50.550618,133.388834 51.0401179,133.236039 51.4679442,133.052685 L51.8046491,136.691986 C51.2334732,136.916456 50.6067355,137.115368 49.9233246,137.288721 C49.2404694,137.462074 48.4098197,137.54875 47.4308198,137.54875 C46.166232,137.54875 45.0961107,137.365396 44.2193446,136.998132 C43.3425785,136.630868 42.6186076,136.136923 42.0474317,135.51463 C41.4762558,134.892893 41.0634312,134.163922 40.8089579,133.327716 C40.553929,132.49151 40.4261368,131.614744 40.4261368,130.697418 L40.4261368,130.697418 Z M60.7051026,137.54875 C59.6244245,137.54875 58.6865404,137.385398 57.8914503,137.05925 C57.0963601,136.733102 56.4385078,136.274161 55.9184488,135.682983 C55.3983898,135.091805 55.0061231,134.393392 54.7410931,133.587745 C54.476063,132.782098 54.3432702,131.890331 54.3432702,130.911331 C54.3432702,129.687859 54.5421817,128.464387 54.9400045,127.240915 C55.3372718,126.017443 55.9234494,124.916207 56.6985372,123.937762 C57.4736251,122.958762 58.4215104,122.158672 59.5433042,121.536379 C60.6645425,120.914642 61.9491326,120.603495 63.3970745,120.603495 C64.4571947,120.603495 65.3900782,120.766847 66.1957251,121.092995 C67.001372,121.419143 67.6636694,121.878084 68.1837283,122.469263 C68.7037873,123.060996 69.096054,123.759409 69.3616396,124.5645 C69.6266697,125.370147 69.7589069,126.26247 69.7589069,127.240915 C69.7589069,128.464387 69.564996,129.687859 69.1777299,130.911331 C68.7904638,132.134803 68.2192879,133.236039 67.4647579,134.215039 C66.7102279,135.193483 65.7673432,135.994129 64.6355482,136.615866 C63.5037533,137.237604 62.1941603,137.54875 60.7051026,137.54875 L60.7051026,137.54875 Z M62.9686926,124.457821 C62.2958385,124.457821 61.7046604,124.651177 61.1946026,125.038998 C60.6851004,125.426264 60.2567184,125.915764 59.9100125,126.506943 C59.5633065,127.098121 59.303277,127.745416 59.129924,128.449385 C58.9571267,129.152798 58.8698945,129.820652 58.8698945,130.45239 C58.8698945,131.492508 59.0332464,132.293154 59.3593945,132.853773 C59.6860982,133.414392 60.2772763,133.69498 61.1334845,133.69498 C61.8063386,133.69498 62.3980723,133.501069 62.9075746,133.113803 C63.4176324,132.725981 63.8454587,132.237037 64.1921646,131.645303 C64.5388706,131.054125 64.7989001,130.406829 64.9722531,129.703416 C65.1456061,128.999447 65.2322826,128.332149 65.2322826,127.699856 C65.2322826,126.659738 65.0689307,125.859647 64.7427826,125.299028 C64.4166345,124.737853 63.8254564,124.457821 62.9686926,124.457821 L62.9686926,124.457821 Z M83.2782175,124.946766 C82.8703935,124.845087 82.46757,124.74841 82.0703028,124.656177 C81.6724799,124.5645 81.0863023,124.518939 80.3112144,124.518939 C80.0261821,124.518939 79.7100352,124.544498 79.3633292,124.595059 C79.0166232,124.646176 78.7310353,124.702293 78.507121,124.763412 L75.5401179,137.120368 L70.982379,137.120368 L74.6527951,121.888086 C75.5295612,121.603053 76.5135616,121.332467 77.6047965,121.077994 C78.6954757,120.822965 79.9239483,120.695728 81.2902143,120.695728 C81.7997165,120.695728 82.3658918,120.741289 82.987629,120.832966 C83.6099218,120.924643 84.1549836,121.072437 84.6239256,121.276905 L83.2782175,124.946766 L83.2782175,124.946766 Z M84.3183354,130.819654 C84.3183354,129.514506 84.5478059,128.250474 85.0061912,127.027002 C85.4651321,125.803529 86.1124277,124.717851 86.9486336,123.76941 C87.7848396,122.821525 88.799399,122.056438 89.9923121,121.475261 C91.1852251,120.894084 92.5053748,120.603495 93.9527611,120.603495 C94.6667309,120.603495 95.3295839,120.705729 95.9413199,120.909641 C96.5530559,121.113553 97.0881166,121.409142 97.5470575,121.796408 C98.0059984,122.18423 98.3627055,122.658173 98.6177344,123.218792 C98.8722077,123.779411 99,124.416706 99,125.130675 C99,126.272472 98.7449711,127.240915 98.2354689,128.03656 C97.725411,128.831651 97.0169974,129.478946 96.1096723,129.978447 C95.2017916,130.477948 94.1261141,130.840212 92.8826398,131.064126 C91.6386098,131.288596 90.2829006,131.400831 88.8144007,131.400831 C88.9571947,132.257039 89.2683411,132.863774 89.7472843,133.220481 C90.2267831,133.577744 90.9863136,133.756098 92.0258759,133.756098 C92.6787277,133.756098 93.3410251,133.69998 94.0144347,133.587745 C94.6872888,133.47551 95.3190271,133.307158 95.9107609,133.083244 L96.2469101,136.661427 C95.6757342,136.885897 94.9473183,137.089809 94.0599955,137.273163 C93.1732283,137.457073 92.2097857,137.54875 91.1696678,137.54875 C89.9056356,137.54875 88.8399592,137.370396 87.9731942,137.013689 C87.1064293,136.656427 86.4030162,136.172483 85.862955,135.560747 C85.3223381,134.949011 84.9300714,134.235041 84.6850437,133.419393 C84.4405715,132.603745 84.3183354,131.737536 84.3183354,130.819654 L84.3183354,130.819654 Z M93.218789,124.212794 C92.1792267,124.212794 91.2663454,124.585058 90.4812564,125.329587 C89.6961674,126.07356 89.1816646,127.057561 88.9366368,128.281033 C90.2012246,128.239917 91.2207847,128.133238 91.9953169,127.959885 C92.7704048,127.786532 93.3721397,127.577619 93.799966,127.332592 C94.2283479,127.08812 94.5139358,126.823089 94.6567298,126.537502 C94.7989681,126.251914 94.8706429,125.966326 94.8706429,125.681293 C94.8706429,124.702293 94.3200249,124.212794 93.218789,124.212794 L93.218789,124.212794 Z" id="Fill-1-Copy" sketch:type="MSShapeGroup"></path>
        </g>
    </g>
</svg>

<svg width="100" height="140" viewBox="0 0 100 140" xmlns="http://www.w3.org/2000/svg"><title>bitcore-logo-vertical-grey</title><path d="M32.698 61.234c.738-5.498 3.668-15.897 14.917-24.893V3.91C9.94 31.85 5.36 66.565 4.91 77.663l27.788-16.43m21.048-25.047C58.3 39.586 66.42 47.4 68.49 61.11L96.2 77.45C92.18 32.546 63.53 10.18 53.747 3.8v32.384M65.725 66.6c-5.128 2.033-16.08 4.876-29.837-.12L8.346 82.76c42.37 17.84 75.18 5.02 85.064.162L65.725 66.6m-54.05 54.096c.98 0 1.825.173 2.54.52.712.346 1.304.815 1.773 1.407.47.59.815 1.284 1.04 2.08.224.794.336 1.65.336 2.568 0 1.41-.26 2.74-.78 3.994s-1.228 2.345-2.126 3.273c-.897.928-1.957 1.662-3.18 2.202-1.224.54-2.55.81-3.977.81-.182 0-.503-.005-.96-.016-.46-.01-.985-.056-1.577-.137-.59-.082-1.218-.204-1.88-.367-.664-.164-1.29-.39-1.882-.674l5.293-22.237 4.74-.736-1.896 7.892c.408-.184.816-.327 1.224-.428.41-.104.847-.154 1.316-.154zM7.7 133.786c.713 0 1.385-.173 2.018-.52.63-.346 1.177-.81 1.636-1.39.458-.582.82-1.24 1.086-1.974.265-.734.397-1.5.397-2.294 0-.98-.163-1.743-.49-2.294-.325-.55-.927-.826-1.804-.826-.285 0-.658.05-1.116.153-.46.104-.872.318-1.24.644l-2.018 8.38c.12.02.23.042.32.063.09.02.19.035.29.045.102.012.224.017.367.017h.55zm15.414 3.334h-4.526l3.823-16.088h4.56l-3.855 16.088zm2.203-18.046c-.633 0-1.203-.188-1.713-.566-.51-.376-.765-.953-.765-1.728 0-.428.085-.83.26-1.208.172-.377.4-.703.686-.98.286-.274.617-.493.995-.656.377-.163.78-.245 1.208-.245.632 0 1.202.19 1.712.568.51.377.765.953.765 1.728 0 .43-.087.83-.26 1.208-.173.377-.403.704-.688.98-.286.274-.618.494-.995.656-.378.163-.78.244-1.208.244zm6.3-2.05l4.74-.733-1.16 4.743h5.076l-.917 3.73H34.31l-1.347 5.63c-.122.468-.2.907-.23 1.314-.03.408.02.76.154 1.056.132.296.362.525.688.688.326.164.775.246 1.346.246.49 0 .966-.046 1.424-.138.46-.09.923-.22 1.392-.382l.336 3.486c-.61.226-1.273.42-1.987.583-.714.163-1.56.245-2.54.245-1.406 0-2.496-.21-3.27-.628-.776-.417-1.327-.99-1.653-1.713-.326-.724-.47-1.555-.428-2.493.04-.938.183-1.927.428-2.967l2.997-12.663zm8.81 13.673c0-1.386.224-2.692.672-3.915.447-1.223 1.09-2.294 1.925-3.212.836-.917 1.85-1.64 3.044-2.17 1.19-.53 2.522-.797 3.99-.797.92 0 1.74.087 2.462.26.725.174 1.382.403 1.973.69l-1.56 3.547c-.407-.163-.83-.31-1.27-.444-.438-.132-.973-.198-1.605-.198-1.528 0-2.73.514-3.608 1.544-.877 1.03-1.315 2.432-1.315 4.206 0 1.04.224 1.88.673 2.524.448.642 1.274.963 2.477.963.592 0 1.162-.06 1.713-.184.55-.12 1.04-.273 1.468-.456l.337 3.64c-.572.223-1.198.422-1.882.596-.683.172-1.513.26-2.492.26-1.263 0-2.333-.185-3.21-.552-.876-.367-1.6-.86-2.172-1.483-.57-.622-.984-1.35-1.238-2.187-.256-.836-.384-1.713-.384-2.63zm20.278 6.852c-1.08 0-2.018-.166-2.814-.49-.793-.328-1.45-.787-1.97-1.378-.52-.59-.913-1.29-1.178-2.095-.264-.806-.397-1.698-.397-2.677 0-1.222.2-2.446.597-3.67.397-1.223.983-2.324 1.76-3.302.774-.98 1.722-1.78 2.843-2.402 1.122-.62 2.406-.933 3.854-.933 1.06 0 1.992.164 2.8.49.803.326 1.466.785 1.986 1.376.52.59.912 1.29 1.178 2.093.265.806.397 1.698.397 2.677 0 1.224-.194 2.448-.58 3.67-.39 1.225-.96 2.326-1.714 3.305-.755.978-1.698 1.78-2.83 2.4-1.13.623-2.44.934-3.93.934zm2.264-13.093c-.675 0-1.266.193-1.776.58-.51.388-.938.878-1.285 1.47-.348.59-.608 1.237-.78 1.94-.174.705-.26 1.373-.26 2.004 0 1.04.162 1.84.49 2.403.325.56.916.84 1.772.84.673 0 1.265-.193 1.775-.58.51-.388.937-.877 1.284-1.47.348-.59.608-1.237.78-1.94.175-.705.26-1.372.26-2.004 0-1.04-.162-1.84-.49-2.4-.324-.563-.916-.843-1.772-.843zm20.307.49c-.408-.103-.81-.2-1.208-.292-.4-.092-.985-.137-1.76-.137-.285 0-.6.024-.948.075-.346.05-.632.107-.856.168l-2.966 12.36h-4.558l3.67-15.232c.878-.285 1.862-.556 2.953-.81 1.09-.255 2.32-.382 3.685-.382.51 0 1.076.045 1.698.137.622.092 1.167.24 1.636.444l-1.346 3.67zm1.04 5.872c0-1.306.23-2.57.688-3.794.46-1.223 1.106-2.31 1.943-3.258.835-.948 1.85-1.714 3.042-2.295 1.193-.58 2.513-.872 3.96-.872.715 0 1.378.104 1.99.308.61.204 1.146.5 1.605.886.46.388.816.862 1.07 1.423.255.56.383 1.197.383 1.91 0 1.142-.255 2.11-.765 2.907-.51.795-1.218 1.442-2.125 1.94-.908.5-1.984.863-3.227 1.087-1.243.226-2.6.338-4.07.338.145.857.456 1.464.935 1.82.48.358 1.24.536 2.28.536.652 0 1.314-.056 1.987-.168.673-.112 1.305-.28 1.897-.505l.336 3.58c-.57.225-1.3.43-2.187.612-.888.184-1.85.276-2.89.276-1.265 0-2.33-.18-3.198-.536-.867-.358-1.57-.842-2.11-1.453-.54-.61-.933-1.326-1.178-2.14-.244-.817-.367-1.683-.367-2.6zm8.9-6.608c-1.04 0-1.952.372-2.737 1.117-.784.743-1.298 1.727-1.543 2.95 1.264-.04 2.284-.148 3.058-.32.775-.174 1.377-.383 1.805-.628.428-.245.714-.51.857-.795.142-.286.214-.572.214-.857 0-.978-.55-1.467-1.65-1.467z" fill="#F9F9F9" fill-rule="evenodd"/></svg>
